X: 721
T: Huangyandong da shili
L: 1/8
M: 2/4
K: F
A> c d3/ f/ [I:setbarnb 1]| 
d c B A | 
c> F G A | 
c> f d A | 
c F E D | 
F C C D | 
F C D F | 
C4 | 
G F E D | 
F CC2 | 
c> B A G | 
A> c c G | 
A> c c G | 
A F E D | 
F C D F | 
C4 |]

@@@ Tune index: 9595
